X:8
T:When Wars Alarm, Troop
S:Ashworth's Instructor, p. 31
M:C
%%MIDI program 72
%%MIDI transpose 8
L:1/8
K:G
d2 Be A3 c|BGEA GFED|G2 G2 G>AB>c|d2 cB B2 A2|d2 Be A3 c|
BGEA GFED|G2 G2 G>AB>c|B2 A2 G2 z2::e2 ed eBcB|c2 cB BAGE|
B2 E2 B2 e2|BAGF E3 F|G2 GG e3 d|cBAG GFED|d2 Be A3 c|B2 A2 G2 z2:|]

